icons/evolvere-blue-folders-flat-vivid-dark-fallback/apps/64/distributor-logo-fedora.svg

<?xml version="1.0" encoding="UTF-8" standalone="no"?>
<!-- Created with Inkscape (http://www.inkscape.org/) -->

<svg
   xmlns:dc="http://purl.org/dc/elements/1.1/"
   xmlns:cc="http://creativecommons.org/ns#"
   xmlns:rdf="http://www.w3.org/1999/02/22-rdf-syntax-ns#"
   xmlns:svg="http://www.w3.org/2000/svg"
   xmlns="http://www.w3.org/2000/svg"
   xmlns:sodipodi="http://sodipodi.sourceforge.net/DTD/sodipodi-0.dtd"
   xmlns:inkscape="http://www.inkscape.org/namespaces/inkscape"
   width="64"
   height="64"
   id="svg13094"
   version="1.1"
   inkscape:version="0.91+devel r"
   sodipodi:docname="distributor-logo-fedora.svg">
  <sodipodi:namedview
     id="base"
     pagecolor="#ffffff"
     bordercolor="#666666"
     borderopacity="1.0"
     inkscape:pageopacity="0"
     inkscape:pageshadow="2"
     inkscape:zoom="11.313709"
     inkscape:cx="-1.0460459"
     inkscape:cy="30.531484"
     inkscape:document-units="px"
     inkscape:current-layer="svg13094"
     showgrid="true"
     inkscape:snap-bbox="true"
     inkscape:bbox-paths="true"
     inkscape:bbox-nodes="true"
     inkscape:snap-bbox-edge-midpoints="true"
     inkscape:snap-bbox-midpoints="true"
     inkscape:object-paths="true"
     inkscape:snap-intersection-paths="true"
     inkscape:object-nodes="true"
     inkscape:snap-smooth-nodes="true"
     inkscape:snap-midpoints="true"
     inkscape:snap-object-midpoints="true"
     inkscape:snap-center="true"
     showguides="true"
     inkscape:guide-bbox="true"
     inkscape:window-width="1920"
     inkscape:window-height="1023"
     inkscape:window-x="-10"
     inkscape:window-y="35"
     inkscape:window-maximized="1"
     inkscape:snap-global="true"
     fit-margin-top="0"
     fit-margin-left="0"
     fit-margin-right="0"
     fit-margin-bottom="0"
     showborder="true"
     inkscape:showpageshadow="false"
     inkscape:snap-page="true">
    <inkscape:grid
       type="xygrid"
       id="grid3075"
       empspacing="5"
       visible="true"
       enabled="true"
       snapvisiblegridlinesonly="true"
       originx="1.6362304e-08px"
       originy="18px" />
  </sodipodi:namedview>
  <defs
     id="defs13096" />
  <metadata
     id="metadata13099">
    <rdf:RDF>
      <cc:Work
         rdf:about="">
        <dc:format>image/svg+xml</dc:format>
        <dc:type
           rdf:resource="http://purl.org/dc/dcmitype/StillImage" />
        <dc:title></dc:title>
      </cc:Work>
    </rdf:RDF>
  </metadata>
  <path
     style="color:#000000;fill:#2e67d0;fill-opacity:1;fill-rule:nonzero;stroke:none;stroke-width:2.28571415;marker:none;visibility:visible;display:inline;overflow:visible;enable-background:accumulate"
     d="M 0 4 L 0 34 L 0 62 L 2 64 L 32 64 L 62 64 L 64 62 L 64 34 L 64 4 L 32 4 L 0 4 z "
     id="path6498" />
  <path
     style="color:#000000;fill:#5fa2ff;fill-opacity:1;fill-rule:nonzero;stroke:none;marker:none;visibility:visible;display:inline;overflow:visible;enable-background:accumulate;stroke-width:2.28571415000000000"
     d="M 2 0 L 0 1 L 0 4 L 32 4 L 64 4 L 64 1 L 62 0 L 32 0 L 2 0 z "
     id="path6502" />
  <path
     style="fill:#79b1ff;fill-opacity:1;fill-rule:nonzero"
     d="M 0,3 0,6 2,4 Z"
     id="path4298"
     inkscape:connector-curvature="0"
     sodipodi:nodetypes="cccc" />
  <path
     d="M 64,6 62,4 64,3 z"
     id="path3028"
     style="fill:#4582e6;fill-opacity:1"
     inkscape:connector-curvature="0" />
  <g
     id="g3043"
     inkscape:export-filename="folder.png"
     inkscape:export-xdpi="90"
     inkscape:export-ydpi="90"
     transform="translate(-0.62500009,0.082283)" />
  <g
     id="scalable"
     transform="matrix(1.0385892,0,0,1.0385892,1214.7222,1878.8121)"
     inkscape:label="#g3701"
     style="fill:#ffffff" />
  <path
     inkscape:connector-curvature="0"
     id="path3047"
     d="M 32,12.15625 C 19.940101,12.15625 10.164799,21.941781 10.15625,34 l 0,16.90625 c 0.006,2.737895 2.229131,4.9375 4.96875,4.9375 l 16.875,0 C 44.06129,55.83905 53.84375,46.0622 53.84375,34 53.84375,21.934589 44.065319,12.15625 32,12.15625 Z m 6.40625,5.1875 c 5.630616,0 10.25,4.588136 10.25,10.21875 0,5.630618 -4.619384,10.25 -10.25,10.25 L 33,37.8125 33,43.25 C 33,48.880616 28.380617,53.5 22.75,53.5 17.119384,53.5 12.5,48.880616 12.5,43.25 12.5,37.619384 17.119384,33 22.75,33 l 5.40625,0 0,-5.4375 c 0,-5.630615 4.619383,-10.21875 10.25,-10.21875 z m 0,4.78125 c -3.037234,0 -5.4375,2.400272 -5.4375,5.4375 l 0,5.46875 5.4375,0 c 3.037233,0 5.46875,-2.431515 5.46875,-5.46875 0,-3.037231 -2.431517,-5.4375 -5.46875,-5.4375 z M 22.75,37.8125 c -3.037233,0 -5.46875,2.400266 -5.46875,5.4375 0,3.03723 2.431517,5.46875 5.46875,5.46875 3.037234,0 5.46875,-2.43152 5.46875,-5.46875 l 0,-5.4375 -5.46875,0 z"
     style="fill:#001b4e;fill-opacity:0.44633272" />
  <path
     inkscape:connector-curvature="0"
     style="fill:#d1e3ff;fill-opacity:1"
     d="m 38.41528,17.333617 c -5.662305,0 -10.25624,4.589006 -10.25624,10.251108 l 0,5.435805 -4.292231,0 c -1.338937,0 -2.421179,1.053182 -2.420471,2.389702 0,1.328262 1.070192,2.384575 2.394825,2.384575 l 3.553788,0 c 0.422066,0 0.764089,0.342722 0.764089,0.76409 l 0,4.702483 c -0.0048,2.985238 -2.424931,5.399908 -5.410166,5.399908 -1.011228,0 -1.263546,-0.13333 -1.953816,-0.13333 -1.450295,0 -2.420471,0.976166 -2.420471,2.31278 3.95e-4,1.1058 0.948139,2.055495 2.107665,2.358935 0.795202,0.207863 1.407576,0.302558 2.266622,0.302558 5.662305,0 10.251108,-4.589004 10.251108,-10.251106 l 0,-5.435806 4.297363,0 c 1.338937,0 2.42113,-1.053182 2.420471,-2.389702 0,-1.328261 -1.070192,-2.384575 -2.394825,-2.384575 l -3.55892,0 c -0.422065,0 -0.764089,-0.337594 -0.764089,-0.758961 l 0,-4.702485 c 0.0048,-2.985237 2.430051,-5.405036 5.415298,-5.405036 1.011216,0 1.258415,0.133332 1.948685,0.133332 1.450294,0 2.420471,-0.976168 2.420471,-2.312782 -3.36e-4,-1.105798 -0.94814,-2.055493 -2.107666,-2.358933 -0.795202,-0.207864 -1.402445,-0.30256 -2.26149,-0.30256 z"
     id="free" />
</svg>

<svg xmlns="http://www.w3.org/2000/svg" viewBox="0 0 64 64"><g color="#000"><path d="m0 4v30 28l2 2h30 30l2-2v-28-30h-32-32" fill="#2e67d0"/><path d="m2 0l-2 1v3h32 32v-3l-2-1h-30-30" fill="#5fa2ff"/></g><path d="m0 3v3l2-2" fill="#79b1ff"/><path d="m64 6l-2-2 2-1z" fill="#4582e6"/><path d="m32 12.156c-12.06 0-21.835 9.786-21.844 21.844v16.906c.006 2.738 2.229 4.938 4.969 4.938h16.875c12.06-.005 21.844-9.782 21.844-21.844 0-12.07-9.778-21.844-21.844-21.844m6.406 5.188c5.631 0 10.25 4.588 10.25 10.219 0 5.631-4.619 10.25-10.25 10.25h-5.406v5.438c0 5.631-4.619 10.25-10.25 10.25-5.631 0-10.25-4.619-10.25-10.25 0-5.631 4.619-10.25 10.25-10.25h5.406v-5.438c0-5.631 4.619-10.219 10.25-10.219zm0 4.781c-3.037 0-5.438 2.4-5.438 5.438v5.469h5.438c3.037 0 5.469-2.432 5.469-5.469 0-3.037-2.432-5.438-5.469-5.438m-15.656 15.688c-3.037 0-5.469 2.4-5.469 5.438 0 3.037 2.432 5.469 5.469 5.469 3.037 0 5.469-2.432 5.469-5.469v-5.438h-5.469" fill="#001b4e" fill-opacity=".446"/><path d="m38.42 17.334c-5.662 0-10.256 4.589-10.256 10.251v5.436h-4.292c-1.339 0-2.421 1.053-2.42 2.39 0 1.328 1.07 2.385 2.395 2.385h3.554c.422 0 .764.343.764.764v4.702c-.005 2.985-2.425 5.4-5.41 5.4-1.011 0-1.264-.133-1.954-.133-1.45 0-2.42.976-2.42 2.313 0 1.106.948 2.055 2.108 2.359.795.208 1.408.303 2.267.303 5.662 0 10.251-4.589 10.251-10.251v-5.436h4.297c1.339 0 2.421-1.053 2.42-2.39 0-1.328-1.07-2.385-2.395-2.385h-3.559c-.422 0-.764-.338-.764-.759v-4.702c.005-2.985 2.43-5.405 5.415-5.405 1.011 0 1.258.133 1.949.133 1.45 0 2.42-.976 2.42-2.313 0-1.106-.948-2.055-2.108-2.359-.795-.208-1.402-.303-2.261-.303" fill="#d1e3ff"/></svg>
